_site/assets/images/rrss/twitter.svg

<svg height="500" width="500" xmlns="http://www.w3.org/2000/svg"><path d="m50 0c-27.7 0-50 22.3-50 50v400c0 27.7 22.3 50 50 50h400c27.7 0 50-22.3 50-50v-400c0-27.7-22.3-50-50-50zm278.0625 81.28125c.72561-.018386 1.45746 0 2.1875 0 24.33665 0 46.3209 10.27666 61.75 26.71875 19.28009-3.80078 37.4-10.85965 53.75-20.5625-6.32063 19.77403-19.73858 36.34782-37.21875 46.8125 17.1202-2.03436 33.43253-6.57324 48.59375-13.3125-11.33533 16.96953-25.69293 31.87663-42.21875 43.78125.15888 3.63334.25 7.30194.25 10.96875 0 111.8129-85.11108 240.75-240.75 240.75-47.77751 0-92.232352-14.01273-129.6875-38.03125 6.622019.78694 13.364543 1.1875 20.1875 1.1875 39.64856 0 76.10467-13.52297 105.0625-36.21875-37.01982-.67809-68.25684-25.16874-79.03125-58.78125 5.165343.99624 10.47913 1.53125 15.9375 1.53125 7.71876 0 15.18203-1.04325 22.28125-2.96875-38.710901-7.78571-67.875-41.94946-67.875-82.9375 0-.35997-.0064-.74216 0-1.09375 11.410689 6.33741 24.480153 10.15005 38.34375 10.59375-22.704155-15.16961-37.65625-41.05495-37.65625-70.40625 0-15.52119 4.185309-30.07187 11.46875-42.5625 41.7331 51.19316 104.08367 84.87339 174.40625 88.40625-1.4483-6.20342-2.1875-12.6592-2.1875-19.28125 0-46.00086 36.69258-83.435408 82.40625-84.59375z" fill="#fff" transform=""/></svg>

<?xml version="1.0" ?><svg height="500" id="svg2" version="1.1" width="500" xmlns="http://www.w3.org/2000/svg" xmlns:cc="http://creativecommons.org/ns#" xmlns:dc="http://purl.org/dc/elements/1.1/" xmlns:inkscape="http://www.inkscape.org/namespaces/inkscape" xmlns:rdf="http://www.w3.org/1999/02/22-rdf-syntax-ns#" xmlns:sodipodi="http://sodipodi.sourceforge.net/DTD/sodipodi-0.dtd" xmlns:svg="http://www.w3.org/2000/svg"><defs id="defs4"/><g id="layer1" transform="translate(0,-552.36218)"><path d="M 50 0 C 22.3 0 -1.0018638e-016 22.3 0 50 L 0 450 C 0 477.7 22.3 500 50 500 L 450 500 C 477.7 500 500 477.7 500 450 L 500 50 C 500 22.3 477.7 -1.0018638e-016 450 0 L 50 0 z M 328.0625 81.28125 C 328.78811 81.262864 329.51996 81.28125 330.25 81.28125 C 354.58665 81.28125 376.5709 91.55791 392 108 C 411.28009 104.19922 429.4 97.14035 445.75 87.4375 C 439.42937 107.21153 426.01142 123.78532 408.53125 134.25 C 425.65145 132.21564 441.96378 127.67676 457.125 120.9375 C 445.78967 137.90703 431.43207 152.81413 414.90625 164.71875 C 415.06513 168.35209 415.15625 172.02069 415.15625 175.6875 C 415.15625 287.5004 330.04517 416.4375 174.40625 416.4375 C 126.62874 416.4375 82.173898 402.42477 44.71875 378.40625 C 51.340769 379.19319 58.083293 379.59375 64.90625 379.59375 C 104.55481 379.59375 141.01092 366.07078 169.96875 343.375 C 132.94893 342.69691 101.71191 318.20626 90.9375 284.59375 C 96.102843 285.58999 101.41663 286.125 106.875 286.125 C 114.59376 286.125 122.05703 285.08175 129.15625 283.15625 C 90.445349 275.37054 61.28125 241.20679 61.28125 200.21875 C 61.28125 199.85878 61.27485 199.47659 61.28125 199.125 C 72.691939 205.46241 85.761403 209.27505 99.625 209.71875 C 76.920845 194.54914 61.96875 168.6638 61.96875 139.3125 C 61.96875 123.79131 66.154059 109.24063 73.4375 96.75 C 115.1706 147.94316 177.52117 181.62339 247.84375 185.15625 C 246.39545 178.95283 245.65625 172.49705 245.65625 165.875 C 245.65625 119.87414 282.34883 82.439592 328.0625 81.28125 z " id="rect2995" style="fill:#fff;fill-opacity:1;fill-rule:nonzero" transform="translate(0,552.36218)"/></g></svg>
